assets/imgs/btn_arrow.svg

<svg width="30" height="30" viewBox="0 0 30 30" fill="none" xmlns="http://www.w3.org/2000/svg">
<path d="M8.5426 17.047L18.4437 27.6553C20.0737 29.4017 23 28.2483 23 25.8594C23 25.2136 22.7626 24.5904 22.333 24.1083L14.8095 15.6653C14.4716 15.2861 14.4716 14.7139 14.8095 14.3347L22.333 5.89169C22.7626 5.40957 23 4.78636 23 4.14061C23 1.75169 20.0737 0.598249 18.4437 2.34469L8.54261 12.953C7.46683 14.1057 7.46682 15.8943 8.5426 17.047Z" fill="#4B4B4B" stroke="white" stroke-width="2"/>
</svg>

<svg width="30" height="30" fill="none" xmlns="http://www.w3.org/2000/svg"><path d="m8.543 17.047 9.9 10.608c1.63 1.747 4.557.593 4.557-1.796 0-.645-.237-1.269-.667-1.75l-7.523-8.444a1 1 0 0 1 0-1.33l7.523-8.443c.43-.482.667-1.106.667-1.751 0-2.39-2.926-3.543-4.556-1.796L8.543 12.953a3 3 0 0 0 0 4.094z" fill="#4B4B4B" stroke="#fff" stroke-width="2"/></svg>
